assets/Watermelon/Flat/watermelon_flat.svg

<svg width="32" height="32" viewBox="0 0 32 32" fill="none" xmlns="http://www.w3.org/2000/svg">
<path d="M29.41 21.61L28.83 21.03C23.1486 26.7114 10.89 21.03 10.89 21.03C10.89 21.03 5.20862 8.77143 10.89 3.09002L10.31 2.51C9.63 1.83 8.53001 1.83 7.85001 2.51L6.47 3.89C0.51 9.85 0.51 19.51 6.47 25.46C12.43 31.42 22.09 31.42 28.04 25.46L29.42 24.08C30.09 23.39 30.09 22.29 29.41 21.61Z" fill="#008463"/>
<path d="M8.14071 23.7852C13.0907 28.7352 21.2337 28.7312 26.1837 23.7812L28.8301 21.1055V21.03L27.6401 19.8401C22.5762 24.904 13 19.8401 13 19.8401C13 19.8401 6.99621 9.324 12.0601 4.2601L10.8886 3.09155H10.8009L8.13293 5.74609C3.18293 10.6961 3.19071 18.8352 8.14071 23.7852Z" fill="#FFF3D7"/>
<path d="M9.16395 22.7422C13.464 27.0422 20.528 27.0578 24.828 22.7578L27.6399 19.9258V19.8401L12.0565 4.26355L11.9413 4.28516L9.14448 7.08203C4.84448 11.382 4.86395 18.4422 9.16395 22.7422Z" fill="#F8312F"/>
<path d="M13.9501 10.7599C13.9501 11.3619 13.4621 11.85 12.8601 11.85C12.2581 11.85 11.7701 11.3619 11.7701 10.7599C11.7701 10.158 12.2581 9.66992 12.8601 9.66992C13.4621 9.66992 13.9501 10.158 13.9501 10.7599Z" fill="#1C1C1C"/>
<path d="M11.5202 17.4C12.1222 17.4 12.6102 16.9119 12.6102 16.3099C12.6102 15.7079 12.1222 15.22 11.5202 15.22C10.9182 15.22 10.4302 15.7079 10.4302 16.3099C10.4302 16.9119 10.9182 17.4 11.5202 17.4Z" fill="#1C1C1C"/>
<path d="M15.6001 21.48C16.2021 21.48 16.6901 20.9921 16.6901 20.3901C16.6901 19.7881 16.2021 19.3 15.6001 19.3C14.9982 19.3 14.5101 19.7881 14.5101 20.3901C14.5101 20.9921 14.9982 21.48 15.6001 21.48Z" fill="#1C1C1C"/>
<path d="M16.9501 15.94C17.5521 15.94 18.0401 15.452 18.0401 14.85C18.0401 14.248 17.5521 13.76 16.9501 13.76C16.3481 13.76 15.8601 14.248 15.8601 14.85C15.8601 15.452 16.3481 15.94 16.9501 15.94Z" fill="#1C1C1C"/>
<path d="M22.2302 19.0499C22.2302 19.6519 21.7422 20.14 21.1402 20.14C20.5382 20.14 20.0502 19.6519 20.0502 19.0499C20.0502 18.4479 20.5382 17.96 21.1402 17.96C21.7422 17.96 22.2302 18.4479 22.2302 19.0499Z" fill="#1C1C1C"/>
</svg>

<svg xmlns="http://www.w3.org/2000/svg" width="32" height="32" fill="none"><path fill="#008463" d="m29.41 21.61-.58-.58c-5.681 5.681-17.94 0-17.94 0s-5.681-12.259 0-17.94l-.58-.58c-.68-.68-1.78-.68-2.46 0L6.47 3.89C.51 9.85.51 19.51 6.47 25.46c5.96 5.96 15.62 5.96 21.57 0l1.38-1.38c.67-.69.67-1.79-.01-2.47Z"/><path fill="#FFF3D7" d="M8.14 23.785c4.95 4.95 13.094 4.946 18.044-.004l2.646-2.675v-.076l-1.19-1.19c-5.064 5.064-14.64 0-14.64 0S6.996 9.324 12.06 4.26L10.89 3.092H10.8L8.133 5.746c-4.95 4.95-4.942 13.09.008 18.04Z"/><path fill="#F8312F" d="M9.164 22.742c4.3 4.3 11.364 4.316 15.664.016l2.812-2.832v-.086L12.056 4.264l-.115.021-2.797 2.797c-4.3 4.3-4.28 11.36.02 15.66Z"/><path fill="#1C1C1C" d="M13.95 10.76a1.09 1.09 0 1 1-2.18 0 1.09 1.09 0 0 1 2.18 0ZM11.52 17.4a1.09 1.09 0 1 0 0-2.18 1.09 1.09 0 0 0 0 2.18ZM15.6 21.48a1.09 1.09 0 1 0 0-2.18 1.09 1.09 0 0 0 0 2.18ZM16.95 15.94a1.09 1.09 0 1 0 0-2.18 1.09 1.09 0 0 0 0 2.18ZM22.23 19.05a1.09 1.09 0 1 1-2.18 0 1.09 1.09 0 0 1 2.18 0Z"/></svg>
